X:1
T:Entreaty, LM
T:Entreaty, LM
T:Henry Coward, 1912
T:Public Domain Courtesy of the Cyber Hymnal™
C:Henry Coward, 1912
Z:Public Domain
Z:Courtesy of the Cyber Hymnal™
%%score ( 1 2 ) ( 3 4 )
L:1/8
Q:1/4=107
M:2/4
K:Eb
V:1 treble 
V:2 treble 
V:3 bass 
V:4 bass 
V:1
 [EB]2 [EA][EG] | [EG]2 [EF]2 | [DG]2 [DF]2 | E4 | [Ec]2 [FA][DF] | [CE]2 [=B,D]2 | [CE]2 (FG) | %7
 [DF]4 | [EB]2 [EA][EG] | [DG]2 [DF]2 | [EB]2 (AG) | [GB]2 [FA]2 | [Fd]2 [Fc][FB] | %13
 [Ee]2 ([EG][GB]) | [FA]2 [DF]2 | E4 |] %16
V:2
 x4 | x4 | x4 | E4 | x4 | x4 | x2 E2 | x4 | x4 | x4 | x2 =E2 | x4 | x4 | x4 | x4 | E4 |] %16
V:3
 [E,G,]2 [E,C][E,B,] | [B,,B,]2 [B,,A,]2 | [B,,B,]2 [B,,A,]2 | [C,G,]4 | A,2 [F,C][F,A,] | %5
 G,2 G,2 | [C,G,]2 [F,=A,]2 | [B,,B,]4 | [G,B,]2 [F,B,][E,B,] | [A,B,]2 [A,B,]2 | [G,B,]2 [C,C]2 | %11
 [F,C]4 | [A,B,]2 [A,E][A,D] | [G,_D]2 [E,D]2 | (C_C) (B,A,) | [E,G,]4 |] %16
V:4
 x4 | x4 | x4 | x4 | A,2 x2 | G,2 G,2 | x4 | x4 | x4 | x4 | x4 | x4 | x4 | x4 | A,2 B,,2 | x4 |] %16

